src/img/icons/document-spreadsheet.svg

<svg width="32" height="32" viewBox="0 0 32 32" fill="none" xmlns="http://www.w3.org/2000/svg">
<path fill-rule="evenodd" clip-rule="evenodd" d="M9 14C9 13.4477 9.44772 13 10 13H22C22.5523 13 23 13.4477 23 14V25C23 25.5523 22.5523 26 22 26H10C9.44772 26 9 25.5523 9 25V14ZM10.75 17.125V14.75H21.25V17.125H10.75ZM14.875 18.875H17.125V21.125H14.875V18.875ZM18.875 18.875V21.125H21.25V18.875H18.875ZM14.875 22.875H17.125V24.25H14.875V22.875ZM18.875 22.875V24.25H21.25V22.875H18.875ZM13.125 18.875H10.75V21.125H13.125V18.875ZM13.125 22.875H10.75V24.25H13.125V22.875Z" fill="#131212"/>
<path fill-rule="evenodd" clip-rule="evenodd" d="M5.67753 29.3225C6.12921 29.7742 6.67165 30 7.30484 30H24.8004C25.4336 30 25.9761 29.7742 26.4277 29.3225C26.8794 28.8708 27.1053 28.3284 27.1053 27.6952V10.316C27.1053 10.0001 27.0429 9.69988 26.9181 9.41521C26.7933 9.13079 26.6284 8.88284 26.4233 8.67137L20.4339 2.68195C20.2224 2.47686 19.9745 2.31193 19.6901 2.18716C19.4054 2.06239 19.1051 2 18.7893 2H7.30484C6.67165 2 6.12921 2.22584 5.67753 2.67753C5.22584 3.12921 5 3.67165 5 4.30484V27.6952C5 28.3284 5.22584 28.8708 5.67753 29.3225ZM18.8169 3.85168V9.08105C18.8169 9.40379 18.9283 9.67667 19.1511 9.89968C19.3738 10.1225 19.6466 10.2338 19.9693 10.2338H25.2536V27.6952C25.2536 27.8084 25.2064 27.9123 25.1121 28.0068C25.0175 28.1012 24.9136 28.1483 24.8004 28.1483H7.30484C7.19161 28.1483 7.08772 28.1012 6.99316 28.0068C6.89884 27.9123 6.85168 27.8084 6.85168 27.6952V4.30484C6.85168 4.19161 6.89884 4.08772 6.99316 3.99316C7.08772 3.89884 7.19161 3.85168 7.30484 3.85168H18.8169Z" fill="#131212"/>
</svg>

<svg xmlns="http://www.w3.org/2000/svg" viewBox="0 0 32 32">
  <path fill="currentColor" fill-rule="evenodd" d="M9 14a1 1 0 0 1 1-1h12a1 1 0 0 1 1 1v11a1 1 0 0 1-1 1H10a1 1 0 0 1-1-1V14Zm1.75 3.125V14.75h10.5v2.375h-10.5Zm4.125 1.75h2.25v2.25h-2.25v-2.25Zm4 0v2.25h2.375v-2.25h-2.375Zm-4 4h2.25v1.375h-2.25v-1.375Zm4 0v1.375h2.375v-1.375h-2.375Zm-5.75-4H10.75v2.25h2.375v-2.25Zm0 4H10.75v1.375h2.375v-1.375Z" clip-rule="evenodd"/>
  <path fill="currentColor" fill-rule="evenodd" d="M5.678 29.323A2.22 2.22 0 0 0 7.305 30H24.8c.634 0 1.176-.226 1.628-.677a2.22 2.22 0 0 0 .677-1.628V10.316a2.22 2.22 0 0 0-.187-.9 2.5 2.5 0 0 0-.495-.745l-5.99-5.989a2.5 2.5 0 0 0-.743-.495 2.22 2.22 0 0 0-.9-.187H7.304a2.22 2.22 0 0 0-1.627.678A2.22 2.22 0 0 0 5 4.305v23.39c0 .633.226 1.176.678 1.628ZM18.817 3.852V9.08c0 .323.111.596.334.819.223.223.496.334.818.334h5.285v17.461a.434.434 0 0 1-.142.312.434.434 0 0 1-.312.141H7.305a.434.434 0 0 1-.312-.141.434.434 0 0 1-.141-.312V4.305c0-.113.047-.217.141-.312a.434.434 0 0 1 .312-.141h11.512Z" clip-rule="evenodd"/>
</svg>
